assets/instagram.svg

<svg viewBox="0 0 96 96" xmlns="http://www.w3.org/2000/svg"><path d="m40.668 48c0-4.0499 3.2823-7.3339 7.3322-7.3339s7.3339 3.284 7.3339 7.3339-3.284 7.3339-7.3339 7.3339-7.3322-3.284-7.3322-7.3339zm-3.9645 0c0 6.2392 5.0575 11.297 11.297 11.297s11.297-5.0575 11.297-11.297-5.0575-11.297-11.297-11.297-11.297 5.0575-11.297 11.297zm20.401-11.745c-3e-4 0.5222 0.1544 1.0327 0.4443 1.4669 0.2899 0.4343 0.7021 0.7728 1.1844 0.9728s1.0131 0.2525 1.5253 0.1509c0.5121-0.1017 0.9826-0.3529 1.352-0.722 0.3693-0.3691 0.6209-0.8394 0.723-1.3514 0.1021-0.5121 0.05-1.0429-0.1496-1.5254s-0.5378-0.8949-0.9719-1.1852c-0.434-0.2903-0.9444-0.4453-1.4665-0.4455h-1e-3c-0.6999 3e-4 -1.3711 0.2784-1.8661 0.7732s-0.7733 1.1659-0.7739 1.8657zm-17.992 29.652c-2.1449-0.0977-3.3107-0.455-4.0855-0.7568-1.0271-0.3999-1.76-0.8762-2.5305-1.6456-0.7705-0.7695-1.2475-1.5017-1.6456-2.5288-0.302-0.7744-0.6593-1.9406-0.7568-4.0855-0.1067-2.319-0.128-3.0156-0.128-8.8906 0-5.8751 0.0231-6.5698 0.128-8.8907 0.0977-2.1449 0.4576-3.3088 0.7568-4.0855 0.3999-1.0271 0.8761-1.76 1.6456-2.5305s1.5016-1.2475 2.5305-1.6456c0.7744-0.302 1.9406-0.6593 4.0855-0.7568 2.319-0.1066 3.0156-0.1279 8.888-0.1279s6.5697 0.023 8.8906 0.1279c2.145 0.0977 3.3088 0.4576 4.0855 0.7568 1.0272 0.3981 1.76 0.8761 2.5306 1.6456 0.7705 0.7695 1.2457 1.5034 1.6456 2.5305 0.302 0.7744 0.6593 1.9406 0.7568 4.0855 0.1066 2.3209 0.1279 3.0156 0.1279 8.8907 0 5.875-0.0213 6.5697-0.1279 8.8906-0.0977 2.1449-0.4568 3.3108-0.7568 4.0855-0.3999 1.0271-0.8762 1.76-1.6456 2.5288-0.7695 0.7687-1.5034 1.2457-2.5306 1.6456-0.7744 0.302-1.9405 0.6593-4.0855 0.7568-2.3189 0.1066-3.0155 0.1279-8.8906 0.1279s-6.5697-0.0213-8.888-0.1279zm-0.1822-39.774c-2.342 0.1067-3.9424 0.478-5.34 1.0219-1.4474 0.5616-2.6727 1.3151-3.8971 2.5376-1.2245 1.2225-1.976 2.4497-2.5376 3.8971-0.5439 1.3985-0.9152 2.998-1.0219 5.34-0.1084 2.3458-0.1332 3.0957-0.1332 9.0702s0.0248 6.7244 0.1332 9.0702c0.1067 2.3422 0.478 3.9415 1.0219 5.34 0.5616 1.4465 1.3133 2.6752 2.5376 3.8971 1.2242 1.222 2.4497 1.9744 3.8971 2.5376 1.4003 0.5439 2.998 0.9152 5.34 1.0219 2.347 0.1066 3.0957 0.1332 9.0702 0.1332s6.7244-0.0248 9.0702-0.1332c2.3422-0.1067 3.9415-0.478 5.34-1.0219 1.4465-0.5632 2.6727-1.3151 3.8971-2.5376 1.2245-1.2225 1.9744-2.4506 2.5376-3.8971 0.5439-1.3985 0.917-2.998 1.0219-5.34 0.1066-2.3475 0.1314-3.0957 0.1314-9.0702s-0.0248-6.7244-0.1314-9.0702c-0.1067-2.3422-0.478-3.9424-1.0219-5.34-0.5632-1.4465-1.3151-2.6727-2.5376-3.8971-1.2225-1.2245-2.4506-1.976-3.8954-2.5376-1.4002-0.5439-2.9997-0.917-5.34-1.0219-2.3457-0.1066-3.0956-0.1332-9.0701-0.1332s-6.725 0.0248-9.072 0.1332z" fill="#0F0D1A"/></svg>

<svg width="96" height="96" viewBox="0 0 96 96" fill="none" xmlns="http://www.w3.org/2000/svg">
<path d="M40.6678 48C40.6678 43.9501 43.9501 40.6661 48 40.6661C52.0499 40.6661 55.3339 43.9501 55.3339 48C55.3339 52.0499 52.0499 55.3339 48 55.3339C43.9501 55.3339 40.6678 52.0499 40.6678 48ZM36.7033 48C36.7033 54.2392 41.7608 59.2967 48 59.2967C54.2392 59.2967 59.2967 54.2392 59.2967 48C59.2967 41.7608 54.2392 36.7033 48 36.7033C41.7608 36.7033 36.7033 41.7608 36.7033 48ZM57.104 36.2553C57.1037 36.7775 57.2584 37.288 57.5483 37.7222C57.8382 38.1565 58.2504 38.495 58.7327 38.695C59.215 38.895 59.7458 38.9475 60.258 38.8459C60.7701 38.7442 61.2406 38.493 61.61 38.1239C61.9793 37.7548 62.2309 37.2845 62.333 36.7725C62.4351 36.2604 62.383 35.7296 62.1834 35.2471C61.9838 34.7646 61.6456 34.3522 61.2115 34.0619C60.7775 33.7716 60.2671 33.6166 59.745 33.6164H59.744C59.0441 33.6167 58.3729 33.8948 57.8779 34.3896C57.3829 34.8844 57.1046 35.5555 57.104 36.2553V36.2553ZM39.112 65.9075C36.9671 65.8098 35.8013 65.4525 35.0265 65.1507C33.9994 64.7508 33.2665 64.2745 32.496 63.5051C31.7255 62.7356 31.2485 62.0034 30.8504 60.9763C30.5484 60.2019 30.1911 59.0357 30.0936 56.8908C29.9869 54.5718 29.9656 53.8752 29.9656 48.0002C29.9656 42.1251 29.9887 41.4304 30.0936 39.1095C30.1913 36.9646 30.5512 35.8007 30.8504 35.024C31.2503 33.9969 31.7265 33.264 32.496 32.4935C33.2655 31.723 33.9976 31.246 35.0265 30.8479C35.8009 30.5459 36.9671 30.1886 39.112 30.0911C41.431 29.9845 42.1276 29.9632 48 29.9632C53.8724 29.9632 54.5697 29.9862 56.8906 30.0911C59.0356 30.1888 60.1994 30.5487 60.9761 30.8479C62.0033 31.246 62.7361 31.724 63.5067 32.4935C64.2772 33.263 64.7524 33.9969 65.1523 35.024C65.4543 35.7984 65.8116 36.9646 65.9091 39.1095C66.0157 41.4304 66.037 42.1251 66.037 48.0002C66.037 53.8752 66.0157 54.5699 65.9091 56.8908C65.8114 59.0357 65.4523 60.2016 65.1523 60.9763C64.7524 62.0034 64.2761 62.7363 63.5067 63.5051C62.7372 64.2738 62.0033 64.7508 60.9761 65.1507C60.2017 65.4527 59.0356 65.81 56.8906 65.9075C54.5717 66.0141 53.8751 66.0354 48 66.0354C42.1249 66.0354 41.4303 66.0141 39.112 65.9075V65.9075ZM38.9298 26.1332C36.5878 26.2399 34.9874 26.6112 33.5898 27.1551C32.1424 27.7167 30.9171 28.4702 29.6927 29.6927C28.4682 30.9152 27.7167 32.1424 27.1551 33.5898C26.6112 34.9883 26.2399 36.5878 26.1332 38.9298C26.0248 41.2756 26 42.0255 26 48C26 53.9745 26.0248 54.7244 26.1332 57.0702C26.2399 59.4124 26.6112 61.0117 27.1551 62.4102C27.7167 63.8567 28.4684 65.0854 29.6927 66.3073C30.9169 67.5293 32.1424 68.2817 33.5898 68.8449C34.9901 69.3888 36.5878 69.7601 38.9298 69.8668C41.2768 69.9734 42.0255 70 48 70C53.9745 70 54.7244 69.9752 57.0702 69.8668C59.4124 69.7601 61.0117 69.3888 62.4102 68.8449C63.8567 68.2817 65.0829 67.5298 66.3073 66.3073C67.5318 65.0848 68.2817 63.8567 68.8449 62.4102C69.3888 61.0117 69.7619 59.4122 69.8668 57.0702C69.9734 54.7227 69.9982 53.9745 69.9982 48C69.9982 42.0255 69.9734 41.2756 69.8668 38.9298C69.7601 36.5876 69.3888 34.9874 68.8449 33.5898C68.2817 32.1433 67.5298 30.9171 66.3073 29.6927C65.0848 28.4682 63.8567 27.7167 62.4119 27.1551C61.0117 26.6112 59.4122 26.2381 57.0719 26.1332C54.7262 26.0266 53.9763 26 48.0018 26C42.0273 26 41.2768 26.0248 38.9298 26.1332Z" fill="#0F0D1A"/>
</svg>
